X: 80
T: La Nonime
%R: jig
B: Stewart "A Select Collection of Airs, Jigs, Marches and Reels", ca.1784, p.39 #80
F: http://imslp.org/wiki/A_Select_Collection_of_Airs,_Jigs,_Marches_and_Reels_%28Various%29
Z: 2017 John Chambers <jc:trillian.mit.edu>
M: 6/8
L: 1/8
K: D
|:\
d2e fgf | efd e2A | d2e fgf | edc d3 ::\
f2g aba | gfe f2c | f2g aba | gfe f3 |
a2f fef | g2f ede | f2e dcd | ede A3 |\
d2e fgf | efd e2A | d2e fgf | edc d3 :|

%%sep 1 1 500
%%sep 1 1 500

